picto/do-not-dispose-of-residual-waste-or-sanitary-products.svg

<svg class="color-immutable" width="24" height="24" viewBox="0 0 24 24" fill="none" xmlns="http://www.w3.org/2000/svg"><path d="M0 22.5V1.5C0 0.675 0.675 0 1.5 0H22.5C23.325 0 24 0.675 24 1.5V22.5C24 23.325 23.325 24 22.5 24H1.5C0.675 24 0 23.325 0 22.5Z" fill="#2D327D"/><path d="M4.96695 12.721C4.70995 12.721 4.50195 12.929 4.50195 13.186C4.50195 13.443 4.70995 13.651 4.96695 13.651H12.612L11.682 12.721H4.96695Z" fill="white"/><path d="M16.034 13.65C16.291 13.65 16.499 13.442 16.499 13.185C16.499 12.928 16.291 12.72 16.034 12.72H13.76L14.69 13.65H16.034Z" fill="white"/><path d="M15.6581 10.754H14.2251L13.9161 8.79601H13.0571L11.8781 10.839L13.4601 12.421H14.6961L15.6581 10.754Z" fill="white"/><path d="M14.343 8.296L14.653 10.254H15.947L16.317 9.613C16.89 8.62 16.435 7.448 16.764 6.878L16.763 6.877C17.092 6.307 17.685 4.981 17.685 4.981L17.695 4.986C17.753 5.014 17.823 4.992 17.855 4.937L17.983 4.716C18.017 4.657 17.997 4.582 17.937 4.548L17.08 4.053C17.021 4.019 16.945 4.039 16.911 4.098L16.784 4.318C16.752 4.374 16.768 4.446 16.822 4.482L16.828 4.486C16.828 4.486 15.991 5.673 15.662 6.243C15.333 6.813 14.09 7.006 13.517 7.998L13.344 8.298L14.343 8.296Z" fill="white"/><path d="M16.4951 14.382C16.5301 14.156 16.3531 13.952 16.1241 13.952H14.9921L16.2821 15.242C16.3761 14.967 16.4491 14.68 16.4951 14.382Z" fill="white"/><path d="M3.375 13.952C3.168 13.952 3 14.12 3 14.327V20.625C3 20.832 3.168 21 3.375 21H7.07C7.986 21 8.794 20.543 9.28 19.845C9.293 19.826 9.306 19.807 9.319 19.788C9.805 19.089 10.614 18.631 11.53 18.631C11.536 18.631 11.543 18.631 11.549 18.631C13.192 18.559 14.644 17.79 15.555 16.593L12.913 13.951H3.375V13.952Z" fill="white"/><path d="M9.54595 7.26H8.29895L9.69495 8.656C9.51395 8.206 9.46395 7.726 9.54595 7.26Z" fill="white"/><path d="M10.165 6.922C10.372 6.413 10.764 6.015 11.27 5.8L11.414 6.142L10.101 8.298C9.96397 7.847 9.98497 7.365 10.165 6.922Z" fill="white"/><path d="M6.76396 9.69601L4.34896 9.12101L4.20496 8.77901C5.17096 8.39101 6.26196 8.80801 6.76396 9.69601Z" fill="white"/><path d="M3.56403 7.259L4.00903 8.314C4.63203 8.061 5.31703 8.061 5.94103 8.315C6.57403 8.573 7.06903 9.06 7.33703 9.689L8.26103 9.299L6.22103 7.259H3.56403Z" fill="white"/><path d="M10.41 3.759L7.30298 6.264L7.79298 6.754H9.68798C9.69098 6.746 9.69398 6.739 9.69698 6.731C9.95498 6.097 10.444 5.601 11.074 5.334L10.41 3.759Z" fill="white"/><path d="M3.02502 5.979L3.35102 6.754H5.71502L4.37202 5.411L3.02502 5.979Z" fill="white"/><path d="M10.206 3.275L10.09 3L5.83301 4.795L6.94401 5.905L10.206 3.275Z" fill="white"/><path d="M4.00901 2.971L2.97101 4.009L19.957 20.996L20.995 19.956L4.00901 2.971Z" fill="#EB0000"/></svg>

<svg class="color-immutable" width="24" height="24" viewBox="0 0 24 24" fill="none" xmlns="http://www.w3.org/2000/svg"><g clip-path="url(#a)"><path d="M0 22.5v-21C0 .675.675 0 1.5 0h21c.825 0 1.5.675 1.5 1.5v21c0 .825-.675 1.5-1.5 1.5h-21C.675 24 0 23.325 0 22.5Z" fill="#2D327D"/><path d="M4.967 12.721a.465.465 0 1 0 0 .93h7.645l-.93-.93H4.967ZM16.034 13.65a.465.465 0 1 0 0-.93H13.76l.93.93h1.344ZM15.658 10.754h-1.433l-.309-1.958h-.859l-1.179 2.043 1.582 1.582h1.236l.962-1.667Z" fill="#fff"/><path d="m14.343 8.296.31 1.958h1.294l.37-.641c.573-.993.118-2.165.447-2.735l-.001-.001c.329-.57.922-1.896.922-1.896l.01.005a.124.124 0 0 0 .16-.049l.128-.221a.122.122 0 0 0-.046-.168l-.857-.495a.124.124 0 0 0-.169.045l-.127.22a.124.124 0 0 0 .038.164l.006.004s-.837 1.187-1.166 1.757c-.329.57-1.572.763-2.145 1.755l-.173.3.999-.002ZM16.495 14.382a.375.375 0 0 0-.37-.43h-1.133l1.29 1.29a5.03 5.03 0 0 0 .213-.86ZM3.375 13.952a.375.375 0 0 0-.375.375v6.298c0 .207.168.375.375.375H7.07c.916 0 1.724-.457 2.21-1.155l.039-.057a2.688 2.688 0 0 1 2.211-1.157h.019c1.643-.072 3.095-.841 4.006-2.038l-2.642-2.642H3.375v.001ZM9.546 7.26H8.299l1.396 1.396a2.545 2.545 0 0 1-.15-1.396ZM10.165 6.922A2.05 2.05 0 0 1 11.27 5.8l.144.342-1.313 2.156a2.054 2.054 0 0 1 .064-1.376ZM6.764 9.696l-2.415-.575-.144-.342c.966-.388 2.057.029 2.559.917Z" fill="#fff"/><path d="m3.564 7.259.445 1.055a2.55 2.55 0 0 1 1.932.001 2.555 2.555 0 0 1 1.396 1.374l.924-.39-2.04-2.04H3.564ZM10.41 3.759 7.303 6.264l.49.49h1.895l.009-.023a2.552 2.552 0 0 1 1.377-1.397l-.664-1.575ZM3.025 5.979l.326.775h2.364L4.372 5.411l-1.347.568ZM10.206 3.275 10.09 3 5.833 4.795l1.111 1.11 3.262-2.63Z" fill="#fff"/><path d="M4.009 2.971 2.971 4.009l16.986 16.987 1.038-1.04L4.009 2.971Z" fill="#EB0000"/></g><defs><clipPath id="a"><path fill="#fff" d="M0 0h24v24H0z"/></clipPath></defs></svg>
